packages/icons/src/svg/core/upload.svg

<svg xmlns="http://www.w3.org/2000/svg" viewBox="0 0 16 16">
  <g>
    <path d="M0.9999,10.9979 L0.9999,14.9979 L14.9999,14.9979 L14.9999,10.9979 L15.9999,10.9979 L15.9999,14.9979 C15.9999,15.5119 15.6139,15.9339 15.1169,15.9919 L14.9999,15.9979 L0.9999,15.9979 C0.4479,15.9979 -0.0001,15.5509 -0.0001,14.9979 L-0.0001,10.9979 L0.9999,10.9979 Z M8.0589,-0.0001 C8.2559,0.0119 8.4499,0.0809 8.6129,0.2079 L8.7069,0.2909 L11.2069,2.7909 C11.5979,3.1819 11.5979,3.8149 11.2069,4.2059 C10.8469,4.5659 10.2789,4.5939 9.8869,4.2889 L9.7929,4.2059 L8.9999,3.4129 L8.9999,10.9979 C8.9999,11.5509 8.5519,11.9979 7.9999,11.9979 C7.4479,11.9979 6.9999,11.5509 6.9999,10.9979 L6.9999,3.4139 L6.2069,4.2059 C5.8169,4.5959 5.1839,4.5959 4.7929,4.2059 C4.4019,3.8149 4.4019,3.1819 4.7929,2.7909 L7.2929,0.2909 C7.4429,0.1419 7.6289,0.0489 7.8239,0.0139 L7.9409,-0.0001 L8.0589,-0.0001 Z"/>
  </g>
</svg>

<svg xmlns="http://www.w3.org/2000/svg" viewBox="0 0 16 16"><path d="M1 10.998v4h14v-4h1v4a1 1 0 01-.883.994l-.117.006H1a1 1 0 01-1-1v-4h1zM8.059 0a.998.998 0 01.554.208l.094.083 2.5 2.5a1 1 0 01-1.32 1.498l-.094-.083L9 3.413v7.585a1 1 0 11-2 0V3.414l-.793.792A1 1 0 014.793 2.79l2.5-2.5c.15-.15.336-.242.53-.277L7.942 0h.118z"/></svg>
